X:601
T: "Jagdglueck"
N: Z1281
O: Europa, Mitteleuropa, Deutschland, Rhein
R: Jaeger - Lied
M: 6/8
L: 1/16
K: G
D2 | G3FG2A2G2A2 | B2G2z2z4
GA | B2A2B2c2B2c2 | d3edcB4
Bc | d2d2d2B3AB2 | c2c2c2A3G
A2 | B2B2A2B4dc | B2B2A2G4

@@@ Tune index: 10359
